X:1
T:Title
%%score { 1 | ( 2 3 ) }
L:1/8
M:4/4
K:C
V:1 treble nm="Grand Piano"
V:2 bass 
V:3 bass 
V:1
 z4 z2[Q:1/4=100] [Ge]>[Fd] | [Ec]3 [Fd] [Ec]2 [CE][DF] | %2
[M:17/16] [EG]-<[EG][FA]-<[FA][EG]3/2 z [Ec][Fd] |[M:4/4] [Ge]3 [Ge] [Af][Ge][Fd][Ec] | %4
 [^Fd]2 [FA]2 .d2 ed | [Ec]3 [Fd] [Ec]2 [CE][DF] | %6
[M:17/16] [EG]-<[EG][FA]-<[FA][EG]3/2 z [Ec][Fd] |[M:4/4] [Ge]3 [Ge] [Ge]2 [Ec]d | %8
[M:17/16] e-<ed-<d[Ec]3/2 z cB |[M:4/4] A3 B c2 A2 |[M:17/16] A-<AG-<GG3/2 z G-<G | %11
[M:4/4] B3 c d2 d2 |[M:17/16] d-<dc-<cc3/2 z cB |[M:4/4] A3 B c2 A2 | %14
[M:17/16] A-<AG-<GG3/2 z [Ec][Fd] |[M:4/4] [Ge]3 [Ge] [Ge]2 [Ec]d |[M:7/8] e2 d2 [Ec]3 |] %17
V:2
 z4 z2 [C,C]2 | [C,G,]3 [C,G,] [C,G,]2 [C,G,]2 | %2
[M:17/16] [C,C]-<[C,C][C,C]-<[C,C][C,C]3/2 z [C,G,]-<[C,G,] |[M:4/4] [C,C]3 [C,C] [C,C]2 [C,C]2 | %4
 [D,A,]2 [D,C]2[K:treble] .[G,B,G]2 [G,B,G]2 | [C,G,]3 [C,G,] [C,G,]2 [C,G,]2 | %6
[M:17/16] [C,C]-<[C,C][C,C]-<[C,C][C,C]3/2 z [C,G,]-<[C,G,] | %7
[M:4/4] [C,C]3 [C,C] [C,C]2 z[K:treble] F | %8
[M:17/16] [G,B,G]-<[G,B,G][G,B,F]-<[G,B,F][K:bass][C,G,]3/2 z E[K:treble]G |[M:4/4] F3 G A2 F2 | %10
[M:17/16] F-<FE-<EE3/2 z E-<E |[M:4/4] D3 E F2 F2 |[M:17/16] F-<FE-<EE3/2 z EG | %13
[M:4/4] F3 G A2 F2 |[M:17/16] F-<FE-<EE3/2 z[K:bass] [C,G,]-<[C,G,] | %15
[M:4/4] [C,C]3 [C,C] [C,C]2 z[K:treble] F |[M:7/8] [G,B,G]2 [G,B,F]2[K:bass] [C,G,]3 |] %17
V:3
 x8 | x8 |[M:17/16] x17/2 |[M:4/4] x8 | x4[K:treble] x4 | x8 |[M:17/16] x17/2 | %7
[M:4/4] z4 z2 [C,G,]2[K:treble] |[M:17/16] x4[K:bass] x7/2[K:treble] x |[M:4/4] x8 | %10
[M:17/16] x17/2 |[M:4/4] x8 |[M:17/16] x17/2 |[M:4/4] x8 |[M:17/16] x13/2[K:bass] x2 | %15
[M:4/4] z4 z2 [C,G,]2[K:treble] |[M:7/8] x4[K:bass] x3 |] %17

